src/assets/medium.svg

<?xml version="1.0" encoding="UTF-8"?>
<svg width="30px" height="30px" viewBox="0 0 30 30" version="1.1" xmlns="http://www.w3.org/2000/svg" xmlns:xlink="http://www.w3.org/1999/xlink">
    <title>Medium_White</title>
    <g id="Page-1" stroke="none" stroke-width="1" fill="none" fill-rule="evenodd">
        <g id="Medium" fill="#FFFFFF">
            <path d="M0,15 C0,6.71572834 6.71572834,0 15,0 C23.2842717,0 30,6.71572834 30,15 C30,23.2842717 23.2842717,30 15,30 C6.71572834,30 0,23.2842717 0,15 Z M16.8452613,15.0001012 C16.8452613,18.3137622 14.1935744,21 10.9227312,21 C7.65188812,21 5,18.3131548 5,15.0001012 C5,11.6870476 7.6516869,9 10.9227312,9 C14.1937756,9 16.8452613,11.6864402 16.8452613,15.0001012 M23.3424777,15.0001012 C23.3424777,18.1191983 22.0166342,20.6487321 20.3811121,20.6487321 C18.7455899,20.6487321 17.4197465,18.1191983 17.4197465,15.0001012 C17.4197465,11.8810042 18.7453887,9.35147036 20.3809109,9.35147036 C22.016433,9.35147036 23.3422765,11.8801944 23.3422765,15.0001012 M26,15.0001012 C26,17.7940477 25.5337715,20.0603837 24.9584815,20.0603837 C24.3831914,20.0603837 23.9171641,17.7946551 23.9171641,15.0001012 C23.9171641,12.2055474 24.3833926,9.9398188 24.9584815,9.9398188 C25.5335703,9.9398188 26,12.2053449 26,15.0001012" id="Combined-Shape"></path>
        </g>
    </g>
</svg>

<svg xmlns="http://www.w3.org/2000/svg" width="30" height="30" xmlns:v="https://vecta.io/nano"><path d="M0 15C0 6.716 6.716 0 15 0s15 6.716 15 15-6.716 15-15 15S0 23.284 0 15zm16.845 0c0 3.314-2.652 6-5.923 6S5 18.313 5 15s2.652-6 5.923-6 5.923 2.686 5.923 6m6.497 0c0 3.119-1.326 5.649-2.961 5.649S17.42 18.119 17.42 15s1.326-5.649 2.961-5.649S23.342 11.88 23.342 15M26 15c0 2.794-.466 5.06-1.042 5.06s-1.041-2.266-1.041-5.06.466-5.06 1.041-5.06S26 12.205 26 15" fill="#fff" fill-rule="evenodd"/></svg>
